!!!!SEGMENT: pl-stab--27c--001-003_nowakiewicz-kazimierz--missa-in-b-credo.krn
!!!cenid: 18xx:3452
!!!COM: Nowakiewicz, Kazimierz
!!!COM-rismid: pe30020309
!!!CDT: <1800->1824
!!!CNT: Polish
!!!OPR: Missa in B
!!!OTL: Credo
!!!OMV: 003
!!!PDT:
!!!AGN:
!!!SMS-siglum: PL-STAb
!!!SMS-shelfmark: 27c
!!!SMS-shelfwork: 001-003 M
!!!SMS-variant:
!!!SMS-altvar:
!!!NIFC-rismid: 301050705
!!!URL-scan: https://repozytorium.nifc.pl/islandora/object/pl-stab%3A3750/datastream/PDF/view
!!!ONB-nifc: UWAGA: części Mszy: 1. Kyrie, 2. Gloria, 3. Credo, 4. Et incarnatus, 5. Et resurrexit, 6. Sanctus, 7. Pleni sunt, 8. Benedictus, 9. Agnus Dei, 10. Dona nobis
!!!OMD: allo
!!!key: B-
**kern	**kern	**dynam	**kern	**dynam	**kern	**text	**kern	**text	**dynam	**kern	**text	**kern	**text	**dynam	**kern	**dynam	**kern	**dynam	**kern	**kern	**dynam
*part11	*part10	*part10	*part9	*part9	*part8	*part8	*part7	*part7	*part7	*part6	*part6	*part5	*part5	*part5	*part4	*part4	*part3	*part3	*part2	*part1	*part1
*staff11	*staff10	*	*staff9	*	*staff8	*staff8	*staff7	*staff7	*staff7	*staff6	*staff6	*staff5	*staff5	*	*staff4	*	*staff3	*	*staff2	*staff1	*
*I"Organo	*I"Violino Secundo	*	*I"Violino Primo	*	*I"Baſso	*	*I"Tenore	*	*	*I"Alto	*	*I"Canto	*	*	*I"Cornu Secundo in B.	*	*I"Cornu Primo in B.	*	*I"Clarinetto 2do in B.	*I"Clarinetto Primo in B.	*
*I'org	*I'vl 2	*	*I'vl 1	*	*I'B	*	*I'T	*	*	*I'A	*	*I'S	*	*	*I'cor 2 in B|b	*	*I'cor 1 in B|b	*	*I'cl 2 in B|b	*I'cl 1 in B|b	*
*Iorgan	*Ivioln	*	*Ivioln	*	*I	*	*	*	*	*	*	*	*	*	*Icor	*	*Icor	*	*Iclars	*Iclars	*
*ICklav	*ICstr	*	*ICstr	*	*ICvox	*	*ICvox	*	*	*ICvox	*	*ICvox	*	*	*ICbras	*	*ICbras	*	*ICww	*ICww	*
*IGcont	*IGrpin	*	*IGripn	*	*IGcoro	*	*IGcoro	*	*	*IGcoro	*	*IGcoro	*	*	*IGripn	*	*IGripn	*	*IGripn	*IGripn	*
*clefF4	*clefG2	*	*clefG2	*	*clefF4	*	*clefC4	*	*	*clefC3	*	*clefC1	*	*	*clefG2	*	*clefG2	*	*clefG2	*clefG2	*
*	*	*	*	*	*	*	*	*	*	*	*	*	*	*	*ITrd1c2	*	*ITrd1c2	*	*ITrd1c2	*ITrd1c2	*
*	*	*	*	*	*	*	*ok[e-b-]	*	*	*ok[e-b-]	*	*	*	*	*	*	*	*	*	*	*
*k[b-e-]	*k[b-e-]	*	*k[b-e-]	*	*k[b-e-]	*	*k[b-e-]	*	*	*k[b-e-]	*	*k[b-e-]	*	*	*k[b-e-]	*	*k[b-e-]	*	*k[b-e-]	*k[b-e-]	*
*B-:	*B-:	*	*B-:	*	*B-:	*	*B-:	*	*	*B-:	*	*B-:	*	*	*B-:	*	*B-:	*	*B-:	*B-:	*
*M3/4	*M3/4	*	*M3/4	*	*M3/4	*	*M3/4	*	*	*M3/4	*	*M3/4	*	*	*M3/4	*	*M3/4	*	*M3/4	*M3/4	*
=1	=1	=1	=1	=1	=1	=1	=1	=1	=1	=1	=1	=1	=1	=1	=1	=1	=1	=1	=1	=1	=1
*	*	*	*	*	*	*	*	*	*	*	*	*	*	*	*	*	*	*	*2\right	*2\right	*
!	!	!	!	!	!	!	!	!	!	!	!	!	!	!	!	!LO:DY:a:t=for	!LO:TX:t=P:problem:f(orte)=for	!	!	!LO:TX:a:t=allo	!LO:DY:b:t=for.
!LO:TX:a:t=P:problem:brak skanu	!LO:TX:a:t=allo	!LO:DY:t=for:rj	!	!	!	!	!LO:TX:a:t=allo	!	!	!	!	!LO:TX:a:t=allo	!	!	!LO:TX:a:t=allo	!	!LO:TX:a:t=allo	!	!LO:TX:a:t=allo	!	!
2.ryy	16f\LL	f	4b-\ 4bb-	.	4B-\	Cre-	4d\	Cre-	.	4f\	Cre-	4b-\	Cre-	.	4d/	f	4b-\	f	2.dd\	2.bb-\	f
.	16dd\	.	.	.	.	.	.	.	.	.	.	.	.	.	.	.	.	.	.	.	.
.	16f\	.	.	.	.	.	.	.	.	.	.	.	.	.	.	.	.	.	.	.	.
.	16dd\JJ	.	.	.	.	.	.	.	.	.	.	.	.	.	.	.	.	.	.	.	.
*	*rep	*	*	*	*	*	*	*	*	*	*	*	*	*	*	*	*	*	*	*	*
!	!	!	!	!	!	!	!	!	!LO:DY:a:t=for	!	!	!	!	!	!	!	!	!	!	!	!
.	16f\LL	.	8r	.	4B-\	-do	4d\	-do	f	4f\	-do	4b-\	-do	.	4d/	.	4b-\	.	.	.	.
.	16dd\	.	.	.	.	.	.	.	.	.	.	.	.	.	.	.	.	.	.	.	.
.	16f\	.	16b-\LL	.	.	.	.	.	.	.	.	.	.	.	.	.	.	.	.	.	.
.	16dd\JJ	.	16cc\JJ	.	.	.	.	.	.	.	.	.	.	.	.	.	.	.	.	.	.
*	*Xrep	*	*	*	*	*	*	*	*	*	*	*	*	*	*	*	*	*	*	*	*
*	*rep	*	*	*	*	*	*	*	*	*	*	*	*	*	*	*	*	*	*	*	*
.	16f\LL	.	8b-\L	.	4B-\	in	4d\	in	.	4f\	in	4b-\	in	.	4d/	.	4b-\	.	.	.	.
.	16dd\	.	.	.	.	.	.	.	.	.	.	.	.	.	.	.	.	.	.	.	.
.	16f\	.	8b-\J	.	.	.	.	.	.	.	.	.	.	.	.	.	.	.	.	.	.
.	16dd\JJ	.	.	.	.	.	.	.	.	.	.	.	.	.	.	.	.	.	.	.	.
*	*Xrep	*	*	*	*	*	*	*	*	*	*	*	*	*	*	*	*	*	*	*	*
=2	=2	=2	=2	=2	=2	=2	=2	=2	=2	=2	=2	=2	=2	=2	=2	=2	=2	=2	=2	=2	=2
*	*2\right	*	*	*	*	*	*	*	*	*	*	*	*	*	*	*	*	*	*	*	*
*	*tremolo	*	*	*	*2\right	*	*2\right	*	*	*2\right	*	*2\right	*	*	*	*	*	*	*	*	*
2.ryy	16f\LL	.	4a\ 4ff	.	2A\	u-	2c\	u-	.	2f\	u-	2cc\	u-	.	4f/	.	4cc\	.	2.cc\	2.ff\	.
.	16cc\	.	.	.	.	.	.	.	.	.	.	.	.	.	.	.	.	.	.	.	.
.	16f\	.	.	.	.	.	.	.	.	.	.	.	.	.	.	.	.	.	.	.	.
.	16cc\	.	.	.	.	.	.	.	.	.	.	.	.	.	.	.	.	.	.	.	.
.	16f\	.	8r	.	.	.	.	.	.	.	.	.	.	.	4f/	.	4cc\	.	.	.	.
.	16cc\	.	.	.	.	.	.	.	.	.	.	.	.	.	.	.	.	.	.	.	.
.	16f\	.	16f/LL	.	.	.	.	.	.	.	.	.	.	.	.	.	.	.	.	.	.
.	16cc\	.	16g/JJ	.	.	.	.	.	.	.	.	.	.	.	.	.	.	.	.	.	.
.	16f\	.	8f/L	.	4A\	-num	4c\	-num	.	4f\	-num	4cc\	-num	.	4f/	.	4cc\	.	.	.	.
.	16cc\	.	.	.	.	.	.	.	.	.	.	.	.	.	.	.	.	.	.	.	.
.	16f\	.	8f/J	.	.	.	.	.	.	.	.	.	.	.	.	.	.	.	.	.	.
.	16cc\JJ	.	.	.	.	.	.	.	.	.	.	.	.	.	.	.	.	.	.	.	.
=3	=3	=3	=3	=3	=3	=3	=3	=3	=3	=3	=3	=3	=3	=3	=3	=3	=3	=3	=3	=3	=3
2.ryy	16f\LL	.	4d/ 4b-	.	4B-\	in	4B-\	in	.	4f\	in	4dd\	in	.	4b-\	.	4dd\	.	2.dd\	2.ff\	.
.	16dd\	.	.	.	.	.	.	.	.	.	.	.	.	.	.	.	.	.	.	.	.
.	16f\	.	.	.	.	.	.	.	.	.	.	.	.	.	.	.	.	.	.	.	.
.	16dd\	.	.	.	.	.	.	.	.	.	.	.	.	.	.	.	.	.	.	.	.
.	16f\	.	8r	.	4B-\	u-	4B-\	u-	.	4f\	u-	4dd\	u-	.	4b-\	.	4dd\	.	.	.	.
.	16dd\	.	.	.	.	.	.	.	.	.	.	.	.	.	.	.	.	.	.	.	.
.	16f\	.	16b-\LL	.	.	.	.	.	.	.	.	.	.	.	.	.	.	.	.	.	.
.	16dd\	.	16cc\JJ	.	.	.	.	.	.	.	.	.	.	.	.	.	.	.	.	.	.
.	16f\	.	8b-\L	.	4B-\	-num	4B-\	-num	.	4f\	-num	4dd\	-num	.	4b-\	.	4dd\	.	.	.	.
.	16dd\	.	.	.	.	.	.	.	.	.	.	.	.	.	.	.	.	.	.	.	.
.	16f\	.	8ff\J	.	.	.	.	.	.	.	.	.	.	.	.	.	.	.	.	.	.
.	16dd\JJ	.	.	.	.	.	.	.	.	.	.	.	.	.	.	.	.	.	.	.	.
*	*Xtremolo	*	*	*	*	*	*	*	*	*	*	*	*	*	*	*	*	*	*	*	*
=4	=4	=4	=4	=4	=4	=4	=4	=4	=4	=4	=4	=4	=4	=4	=4	=4	=4	=4	=4	=4	=4
.	.	.	8qqff/	.	.	.	.	.	.	.	.	.	.	.	.	.	.	.	.	.	.
2.ryy	4f/ 4a	.	4ee-\	.	4F\	De-	4c\	De-	.	4f\	De-	4ee-\	De-	.	4cc\	.	4ee-\	.	4cc\	4ee-\	.
.	4f/ 4b-	.	4dd\	.	4BB-/	-um	4B-\	-um	.	4f\	-um	4dd\	-um	.	4b-\	.	4dd\	.	4b-\	4dd\	.
.	4r	.	4r	.	4r	.	4r	.	.	4r	.	4r	.	.	4r	.	4r	.	4b-\	8dd\L	.
.	.	.	.	.	.	.	.	.	.	.	.	.	.	.	.	.	.	.	.	8ee-\J	.
=5	=5	=5	=5	=5	=5	=5	=5	=5	=5	=5	=5	=5	=5	=5	=5	=5	=5	=5	=5	=5	=5
!	!	!LO:DY:a:t=p.:rj	!	!LO:DY:a:t=p.	!	!	!	!	!	!	!	!	!	!	!	!	!	!	!	!	!
!	!	!	!	!	!	!	!	!	!	!	!	!	!	!LO:DY:a:t=p.	!	!	!	!	!	!	!
2.ryy	2.f/	p	8ff\L	p	4D\	Pa-	0.r	.	.	4f\	Pa-	4b-\	Pa-	p	0.r	.	0.r	.	4b-\	4ff\	.
.	.	.	8dd\	.	.	.	.	.	.	.	.	.	.	.	.	.	.	.	.	.	.
.	.	.	8cc\	.	4D\	-tre(m)	.	.	.	4f\	-tre(m)	4b-\	-trem	.	.	.	.	.	4r	4r	.
.	.	.	8b-\J	.	.	.	.	.	.	.	.	.	.	.	.	.	.	.	.	.	.
.	.	.	8bb-\L	.	4D\	o-	.	.	.	4f\	o-	4b-\	o-	.	.	.	.	.	4r	4r	.
.	.	.	8aa-X\J	.	.	.	.	.	.	.	.	.	.	.	.	.	.	.	.	.	.
=6	=6	=6	=6	=6	=6	=6	=6	=6	=6	=6	=6	=6	=6	=6	=6	=6	=6	=6	=6	=6	=6
!	!LO:TX:t=P:problem:mixedbeam	!	!	!	!	!	!	!	!	!	!	!	!	!	!	!	!	!	!	!	!
2.ryy	8g/L	.	8ff#X\L	.	2E-\	-mni-	.	.	.	2g\	-mni-	2b-\	-mni	.	.	.	.	.	0.r	0.r	.
.	(>8e-/	.	8gg\J	.	.	.	.	.	.	.	.	.	.	.	.	.	.	.	.	.	.
*	*	*	*2\right	*	*	*	*	*	*	*	*	*	*	*	*	*	*	*	*	*	*
.	8ee-\	.	2gg\	.	.	.	.	.	.	.	.	.	.	.	.	.	.	.	.	.	.
.	8dd\	.	.	.	.	.	.	.	.	.	.	.	.	.	.	.	.	.	.	.	.
.	8cc\	.	.	.	4E-\	-po-	.	.	.	4g\	-po-	4b-\	po-	.	.	.	.	.	.	.	.
.	8b-\J)	.	.	.	.	.	.	.	.	.	.	.	.	.	.	.	.	.	.	.	.
!	!	!	!LO:LB:g=original	!	!	!	!	!	!	!	!	!LO:LB:g=original	!	!	!	!	!	!	!	!	!
=7	=7	=7	=7	=7	=7	=7	=7	=7	=7	=7	=7	=7	=7	=7	=7	=7	=7	=7	=7	=7	=7
2.ryy	2.a/	.	8ee-\L	.	4F\	.	.	.	.	4a\	-ten-	4a\	-ten-	.	.	.	.	.	.	.	.
.	.	.	8cc\	.	.	.	.	.	.	.	.	.	.	.	.	.	.	.	.	.	.
.	.	.	8b-\	.	4F\	-ten-	.	.	.	4a\	-te(m)	4cc\	-te(m)	.	.	.	.	.	.	.	.
.	.	.	8a\J	.	.	.	.	.	.	.	.	.	.	.	.	.	.	.	.	.	.
.	.	.	8f\L	.	4F\	-em	.	.	.	4a\	fa-	4ee-\	fa-	.	.	.	.	.	.	.	.
.	.	.	8ee-\J	.	.	.	.	.	.	.	.	.	.	.	.	.	.	.	.	.	.
!	!	!	!	!	!LO:LB:g=original	!	!	!	!	!	!	!	!	!	!	!	!	!	!	!	!
=8	=8	=8	=8	=8	=8	=8	=8	=8	=8	=8	=8	=8	=8	=8	=8	=8	=8	=8	=8	=8	=8
2.ryy	4b-/	.	8ee-\L	.	2G\	fa-	.	.	.	2b-\	-cto-	8ee-\L	-cto-	.	.	.	.	.	.	.	.
.	.	.	8dd\	.	.	.	.	.	.	.	.	8dd\J	.	.	.	.	.	.	.	.	.
.	4d/	.	8cc\	.	.	.	.	.	.	.	.	8cc\L	-rem	.	.	.	.	.	.	.	.
.	.	.	8b-\J	.	.	.	.	.	.	.	.	8b-\J	.	.	.	.	.	.	.	.	.
.	4d/	.	4b-\	.	4G\	-cto-	.	.	.	4b-\	-rem	4b-\	.	.	.	.	.	.	.	.	.
!	!	!	!	!	!	!	!	!	!	!LO:LB:g=original	!	!	!	!	!	!	!	!	!	!	!
=9	=9	=9	=9	=9	=9	=9	=9	=9	=9	=9	=9	=9	=9	=9	=9	=9	=9	=9	=9	=9	=9
2.ryy	2.f/	.	8ff\L	.	4D\	.	0.r	.	.	4f\	ce-	4b-\	ce-	.	0.r	.	0.r	.	.	.	.
.	.	.	8dd\J	.	.	.	.	.	.	.	.	.	.	.	.	.	.	.	.	.	.
.	.	.	8cc\L	.	4D\	-rem	.	.	.	4f\	-li	4b-\	-li	.	.	.	.	.	.	.	.
.	.	.	8b-\	.	.	.	.	.	.	.	.	.	.	.	.	.	.	.	.	.	.
.	.	.	8a\	.	4D\	et	.	.	.	4f\	et	4b-\	et	.	.	.	.	.	.	.	.
.	.	.	8b-\J	.	.	.	.	.	.	.	.	.	.	.	.	.	.	.	.	.	.
!	!LO:LB:g=original	!	!	!	!	!	!	!	!	!	!	!	!	!	!	!	!	!	!	!	!
=10	=10	=10	=10	=10	=10	=10	=10	=10	=10	=10	=10	=10	=10	=10	=10	=10	=10	=10	=10	=10	=10
2.ryy	4g/	.	8dd\L	.	4E-\	ter-	.	.	.	4g\	ter-	8dd\L	ter-	.	.	.	.	.	1.r	1.r	.
.	.	.	8cc\J	.	.	.	.	.	.	.	.	8cc\J	.	.	.	.	.	.	.	.	.
.	4g/	.	2cc\	.	2E-\	-re	.	.	.	2g\	-re	2cc\	-re	.	.	.	.	.	.	.	.
.	4g/	.	.	.	.	.	.	.	.	.	.	.	.	.	.	.	.	.	.	.	.
=11	=11	=11	=11	=11	=11	=11	=11	=11	=11	=11	=11	=11	=11	=11	=11	=11	=11	=11	=11	=11	=11
*	*	*	*	*	*	*ij	*	*	*	*	*ij	*	*ij	*	*	*	*	*	*	*	*
2.ryy	2.g/	.	8cc\L	.	4En\	et	.	.	.	4g\	ce-	4cc\	ce-	.	.	.	.	.	.	.	.
.	.	.	8bb-\J	.	.	.	.	.	.	.	.	.	.	.	.	.	.	.	.	.	.
.	.	.	8gg\L	.	4E\	.	.	.	.	4g\	-li	4cc\	-li	.	.	.	.	.	.	.	.
.	.	.	8een\J	.	.	.	.	.	.	.	.	.	.	.	.	.	.	.	.	.	.
.	.	.	8cc\L	.	4E\	.	.	.	.	4g\	et	4b-\	et	.	.	.	.	.	.	.	.
.	.	.	8b-\J	.	.	.	.	.	.	.	.	.	.	.	.	.	.	.	.	.	.
=12	=12	=12	=12	=12	=12	=12	=12	=12	=12	=12	=12	=12	=12	=12	=12	=12	=12	=12	=12	=12	=12
2.ryy	8g/L	.	8b-\L	.	2F\	ter-	.	.	.	8g\L	ter-	8b-\L	ter-	.	.	.	.	.	2.r	2.r	.
.	8f/	.	8a\J	.	.	.	.	.	.	8f\	.	8a\	.	.	.	.	.	.	.	.	.
.	8b-/	.	8dd\L	.	.	.	.	.	.	8b-\	.	8dd\	-re	.	.	.	.	.	.	.	.
*	*	*	*	*	*	*	*	*	*	*	*	*	*Xij	*	*	*	*	*	*	*	*
.	8a/J	.	8cc\J	.	.	.	.	.	.	8a\J	.	8cc\J	.	.	.	.	.	.	.	.	.
.	4a/	.	4cc\	.	4F\	-re	.	.	.	4a\	-re	4cc\	vi-	.	.	.	.	.	.	.	.
*	*	*	*	*	*	*Xij	*	*	*	*	*Xij	*	*	*	*	*	*	*	*	*	*
=13	=13	=13	=13	=13	=13	=13	=13	=13	=13	=13	=13	=13	=13	=13	=13	=13	=13	=13	=13	=13	=13
*	*tremolo	*	*	*	*	*	*	*	*	*	*	*	*	*	*	*	*	*	*	*	*
!	!	!LO:DY:a:t=for	!	!LO:DY:a:t=for.	!	!	!	!	!	!	!	!	!	!	!	!	!	!	!	!	!
2.ryy	16g\LL	f	16cc\LL	f	8C/	vi-	8en\	vi-	.	8g\	vi-	8cc\	-ſi-	.	4cc\	.	4cc\	.	2.gg\	2.bb-\	.
.	16een\	.	16bb-\	.	.	.	.	.	.	.	.	.	.	.	.	.	.	.	.	.	.
.	16g\	.	16cc\	.	8C/	-si-	8e\	-si-	.	8g\	-si-	8cc\	-bi-	.	.	.	.	.	.	.	.
.	16een\	.	16bb-\JJ	.	.	.	.	.	.	.	.	.	.	.	.	.	.	.	.	.	.
*	*	*	*rep	*	*	*	*	*	*	*	*	*	*	*	*	*	*	*	*	*	*
.	16g\	.	16cc\LL	.	4C/	-bi-	4e\	-bi-	.	8g\	-bi-	4cc\	-li-	.	4cc\	.	4cc\	.	.	.	.
.	16een\	.	16bb-\	.	.	.	.	.	.	.	.	.	.	.	.	.	.	.	.	.	.
.	16g\	.	16cc\	.	.	.	.	.	.	4g\	-li-	.	.	.	.	.	.	.	.	.	.
.	16een\	.	16bb-\JJ	.	.	.	.	.	.	.	.	.	.	.	.	.	.	.	.	.	.
*	*	*	*Xrep	*	*	*	*	*	*	*	*	*	*	*	*	*	*	*	*	*	*
*	*	*	*rep	*	*	*	*	*	*	*	*	*	*	*	*	*	*	*	*	*	*
.	16g\	.	16cc\LL	.	8C/	-li-	8e\	-li-	.	.	.	8cc\	-um	.	4cc\	.	4cc\	.	.	.	.
.	16een\	.	16bb-\	.	.	.	.	.	.	.	.	.	.	.	.	.	.	.	.	.	.
.	16g\	.	16cc\	.	8C/	-um	8e\	-um	.	8g\	-um	8cc\	.	.	.	.	.	.	.	.	.
.	16een\JJ	.	16bb-\JJ	.	.	.	.	.	.	.	.	.	.	.	.	.	.	.	.	.	.
*	*	*	*Xrep	*	*	*	*	*	*	*	*	*	*	*	*	*	*	*	*	*	*
!	!	!	!LO:LB:g=original	!	!	!	!	!	!	!	!	!LO:LB:g=original	!	!	!	!	!	!	!	!	!
=14	=14	=14	=14	=14	=14	=14	=14	=14	=14	=14	=14	=14	=14	=14	=14	=14	=14	=14	=14	=14	=14
*	*	*	*	*	*	*	*	*	*	*	*	*	*	*	*	*	*2\right	*	*	*	*
2.ryy	16a\LL	.	16cc\LL	.	4F\	o-	4f\	o-	.	8a\	o-	8cc\	O-	.	4f/	.	2.cc\	.	2.ff\	2.aa\	.
.	16ff\	.	16aa\	.	.	.	.	.	.	.	.	.	.	.	.	.	.	.	.	.	.
.	16a\	.	16cc\	.	.	.	.	.	.	8a\	-mni-	8cc\	-mni-	.	.	.	.	.	.	.	.
.	16ff\	.	16aa\JJ	.	.	.	.	.	.	.	.	.	.	.	.	.	.	.	.	.	.
*	*	*	*rep	*	*	*	*	*	*	*	*	*	*	*	*	*	*	*	*	*	*
.	16a\	.	16cc\LL	.	8F\	-mni-	8f\	-mni-	.	4a\	-um	4cc\	-um	.	4f/	.	.	.	.	.	.
.	16ff\	.	16aa\	.	.	.	.	.	.	.	.	.	.	.	.	.	.	.	.	.	.
.	16a\	.	16cc\	.	8F\	-u(m)	8f\	-u(m)	.	.	.	.	.	.	.	.	.	.	.	.	.
.	16ff\	.	16aa\JJ	.	.	.	.	.	.	.	.	.	.	.	.	.	.	.	.	.	.
*	*	*	*Xrep	*	*	*	*	*	*	*	*	*	*	*	*	*	*	*	*	*	*
*	*	*	*rep	*	*	*	*	*	*	*	*	*	*	*	*	*	*	*	*	*	*
.	16a\	.	16cc\LL	.	8F\	et	8f\	et	.	8a\	et	8cc\	et	.	4f/	.	.	.	.	.	.
.	16ff\	.	16aa\	.	.	.	.	.	.	.	.	.	.	.	.	.	.	.	.	.	.
.	16a\	.	16cc\	.	8F\	in	8f\	in	.	8a\	in	8cc\	in	.	.	.	.	.	.	.	.
.	16ff\JJ	.	16aa\JJ	.	.	.	.	.	.	.	.	.	.	.	.	.	.	.	.	.	.
*	*	*	*Xrep	*	*	*	*	*	*	*	*	*	*	*	*	*	*	*	*	*	*
!	!	!	!	!	!LO:LB:g=original	!	!LO:LB:g=original	!	!	!	!	!	!	!	!	!	!LO:LB:g=original	!	!	!	!
=15	=15	=15	=15	=15	=15	=15	=15	=15	=15	=15	=15	=15	=15	=15	=15	=15	=15	=15	=15	=15	=15
*	*	*	*	*	*	*	*	*	*	*	*	*	*	*	*2\right	*	*	*	*	*	*
2.ryy	16g\LL	.	16cc\LL	.	2C/	vi-	2en\	vi-	.	2g\	vi-	2cc\	vi-	.	2.cc\	.	4cc\	.	2.gg\	2.bb-\	.
.	16een\	.	16bb-\	.	.	.	.	.	.	.	.	.	.	.	.	.	.	.	.	.	.
.	16g\	.	16cc\	.	.	.	.	.	.	.	.	.	.	.	.	.	.	.	.	.	.
.	16een\	.	16bb-\JJ	.	.	.	.	.	.	.	.	.	.	.	.	.	.	.	.	.	.
*	*	*	*rep	*	*	*	*	*	*	*	*	*	*	*	*	*	*	*	*	*	*
.	16g\	.	16cc\LL	.	.	.	.	.	.	.	.	.	.	.	.	.	4cc\	.	.	.	.
.	16een\	.	16bb-\	.	.	.	.	.	.	.	.	.	.	.	.	.	.	.	.	.	.
.	16g\	.	16cc\	.	.	.	.	.	.	.	.	.	.	.	.	.	.	.	.	.	.
.	16een\	.	16bb-\JJ	.	.	.	.	.	.	.	.	.	.	.	.	.	.	.	.	.	.
*	*	*	*Xrep	*	*	*	*	*	*	*	*	*	*	*	*	*	*	*	*	*	*
*	*	*	*rep	*	*	*	*	*	*	*	*	*	*	*	*	*	*	*	*	*	*
.	16g\	.	16cc\LL	.	4C/	-si-	4e\	-si-	.	4g\	-si-	4cc\	-si-	.	.	.	4cc\	.	.	.	.
.	16een\	.	16bb-\	.	.	.	.	.	.	.	.	.	.	.	.	.	.	.	.	.	.
.	16g\	.	16cc\	.	.	.	.	.	.	.	.	.	.	.	.	.	.	.	.	.	.
.	16een\JJ	.	16bb-\JJ	.	.	.	.	.	.	.	.	.	.	.	.	.	.	.	.	.	.
*	*	*	*Xrep	*	*	*	*	*	*	*	*	*	*	*	*	*	*	*	*	*	*
!	!	!	!	!	!	!	!	!	!	!LO:LB:g=original	!	!	!	!	!	!	!	!	!	!	!
=16	=16	=16	=16	=16	=16	=16	=16	=16	=16	=16	=16	=16	=16	=16	=16	=16	=16	=16	=16	=16	=16
2.ryy	16a\LL	.	16cc\LL	.	4.F\	-bi-	4.f\	-bi-	.	4.a\	-bi-	4.cc\	-bi-	.	2.f/	.	2.cc\	.	2.ff\	2.aa\	.
.	16ff\	.	16aa\	.	.	.	.	.	.	.	.	.	.	.	.	.	.	.	.	.	.
.	16a\	.	16cc\	.	.	.	.	.	.	.	.	.	.	.	.	.	.	.	.	.	.
.	16ff\	.	16aa\JJ	.	.	.	.	.	.	.	.	.	.	.	.	.	.	.	.	.	.
*	*	*	*rep	*	*	*	*	*	*	*	*	*	*	*	*	*	*	*	*	*	*
.	16a\	.	16cc\LL	.	.	.	.	.	.	.	.	.	.	.	.	.	.	.	.	.	.
.	16ff\	.	16aa\	.	.	.	.	.	.	.	.	.	.	.	.	.	.	.	.	.	.
.	16a\	.	16cc\	.	8F\	-li-	8f\	-li-	.	8a\	-li-	8cc\	-li-	.	.	.	.	.	.	.	.
.	16ff\	.	16aa\JJ	.	.	.	.	.	.	.	.	.	.	.	.	.	.	.	.	.	.
*	*	*	*Xrep	*	*	*	*	*	*	*	*	*	*	*	*	*	*	*	*	*	*
*	*	*	*rep	*	*	*	*	*	*	*	*	*	*	*	*	*	*	*	*	*	*
.	16a\	.	16cc\LL	.	4F\	-um	4f\	-um	.	4a\	-um	4cc\	-um	.	.	.	.	.	.	.	.
.	16ff\	.	16aa\	.	.	.	.	.	.	.	.	.	.	.	.	.	.	.	.	.	.
.	16a\	.	16cc\	.	.	.	.	.	.	.	.	.	.	.	.	.	.	.	.	.	.
.	16ff\JJ	.	16aa\JJ	.	.	.	.	.	.	.	.	.	.	.	.	.	.	.	.	.	.
*	*	*	*Xrep	*	*	*	*	*	*	*	*	*	*	*	*	*	*	*	*	*	*
!	!	!	!	!	!	!	!	!	!	!	!	!	!	!	!	!	!	!	!LO:LB:g=original	!	!
=17	=17	=17	=17	=17	=17	=17	=17	=17	=17	=17	=17	=17	=17	=17	=17	=17	=17	=17	=17	=17	=17
!	!	!	!LO:TX:t=P:problem:mixedbeam	!	!	!	!	!	!	!	!	!	!	!	!LO:TX:a:t=17	!	!LO:TX:a:t=17.	!	!	!	!
2.ryy	16en/LL	.	16a/LL	.	8A\	et	8A\	et	.	8en\	et	8cc#X\	et	.	2.r	.	2.r	.	2.eenX\	2.gg\	.
.	16cc#X/	.	16gg\	.	.	.	.	.	.	.	.	.	.	.	.	.	.	.	.	.	.
.	16e/	.	16a/	.	8A\	in	8A\	in	.	8e\	in	8cc#\	in	.	.	.	.	.	.	.	.
.	16cc#X/	.	16gg\JJ	.	.	.	.	.	.	.	.	.	.	.	.	.	.	.	.	.	.
*	*	*	*rep	*	*	*	*	*	*	*	*	*	*	*	*	*	*	*	*	*	*
!	!	!	!LO:TX:t=P:problem:mixedbeam	!	!	!	!	!	!	!	!	!	!	!	!	!	!	!	!	!	!
.	16e/	.	16a/LL	.	4A\	u-	4A\	u-	.	4e\	u-	4cc#\	u-	.	.	.	.	.	.	.	.
.	16cc#X/	.	16gg\	.	.	.	.	.	.	.	.	.	.	.	.	.	.	.	.	.	.
.	16e/	.	16a/	.	.	.	.	.	.	.	.	.	.	.	.	.	.	.	.	.	.
.	16cc#X/	.	16gg\JJ	.	.	.	.	.	.	.	.	.	.	.	.	.	.	.	.	.	.
*	*	*	*Xrep	*	*	*	*	*	*	*	*	*	*	*	*	*	*	*	*	*	*
*	*	*	*rep	*	*	*	*	*	*	*	*	*	*	*	*	*	*	*	*	*	*
!	!	!	!LO:TX:t=P:problem:mixedbeam	!	!	!	!	!	!	!	!	!	!	!	!	!	!	!	!	!	!
.	16e/	.	16a/LL	.	4A\	-num	4A\	-num	.	8e\	-nu(m)	4cc#\	-num	.	.	.	.	.	.	.	.
.	16cc#X/	.	16gg\	.	.	.	.	.	.	.	.	.	.	.	.	.	.	.	.	.	.
.	16e/	.	16a/	.	.	.	.	.	.	8ryy	.	.	.	.	.	.	.	.	.	.	.
.	16cc#X/JJ	.	16gg\JJ	.	.	.	.	.	.	.	.	.	.	.	.	.	.	.	.	.	.
*	*	*	*Xrep	*	*	*	*	*	*	*	*	*	*	*	*	*	*	*	*	*	*
=18	=18	=18	=18	=18	=18	=18	=18	=18	=18	=18	=18	=18	=18	=18	=18	=18	=18	=18	=18	=18	=18
2.ryy	16f/LL	.	16a\LL	.	4.D\	Do-	4.A\	Do-	.	4.f\	Do-	4.dd\	Do-	.	2.r	.	2.r	.	2.dd\	2.ff\	.
.	16dd/	.	16ff\	.	.	.	.	.	.	.	.	.	.	.	.	.	.	.	.	.	.
.	16f/	.	16a\	.	.	.	.	.	.	.	.	.	.	.	.	.	.	.	.	.	.
.	16dd/	.	16ff\JJ	.	.	.	.	.	.	.	.	.	.	.	.	.	.	.	.	.	.
*	*	*	*rep	*	*	*	*	*	*	*	*	*	*	*	*	*	*	*	*	*	*
.	16f/	.	16a\LL	.	.	.	.	.	.	.	.	.	.	.	.	.	.	.	.	.	.
.	16dd/	.	16ff\	.	.	.	.	.	.	.	.	.	.	.	.	.	.	.	.	.	.
.	16f/	.	16a\	.	8D\	-mi-	8A\	-mi-	.	8f\	-mi-	8dd\	-mi-	.	.	.	.	.	.	.	.
.	16dd/	.	16ff\JJ	.	.	.	.	.	.	.	.	.	.	.	.	.	.	.	.	.	.
*	*	*	*Xrep	*	*	*	*	*	*	*	*	*	*	*	*	*	*	*	*	*	*
*	*	*	*rep	*	*	*	*	*	*	*	*	*	*	*	*	*	*	*	*	*	*
.	16f/	.	16a\LL	.	4D\	-num	4A\	-nu(m)	.	4f\	-nu(m)	4dd\	-nu(m)	.	.	.	.	.	.	.	.
.	16dd/	.	16ff\	.	.	.	.	.	.	.	.	.	.	.	.	.	.	.	.	.	.
.	16f/	.	16a\	.	.	.	.	.	.	.	.	.	.	.	.	.	.	.	.	.	.
.	16dd/JJ	.	16ff\JJ	.	.	.	.	.	.	.	.	.	.	.	.	.	.	.	.	.	.
*	*	*	*Xrep	*	*	*	*	*	*	*	*	*	*	*	*	*	*	*	*	*	*
!	!	!	!	!	!	!	!	!	!	!	!	!	!	!	!	!	!	!	!	!LO:LB:g=original	!
=19	=19	=19	=19	=19	=19	=19	=19	=19	=19	=19	=19	=19	=19	=19	=19	=19	=19	=19	=19	=19	=19
!	!	!	!	!	!	!	!	!	!	!LO:SIC:v:s=2en\	!	!	!	!	!	!	!	!	!	!	!
2.ryy	16en/LL	.	16a\LL	.	2A\	Je-	2A\	Je-	.	2e-\	Je-	2cc#X\	Je-	.	2.r	.	2.r	.	2.eenX\	2.gg\	.
.	16cc#X/	.	16gg\	.	.	.	.	.	.	.	.	.	.	.	.	.	.	.	.	.	.
.	16en/	.	16a\	.	.	.	.	.	.	.	.	.	.	.	.	.	.	.	.	.	.
.	16cc#X/	.	16gg\JJ	.	.	.	.	.	.	.	.	.	.	.	.	.	.	.	.	.	.
*	*	*	*rep	*	*	*	*	*	*	*	*	*	*	*	*	*	*	*	*	*	*
.	16en/	.	16a\LL	.	.	.	.	.	.	.	.	.	.	.	.	.	.	.	.	.	.
.	16cc#X/	.	16gg\	.	.	.	.	.	.	.	.	.	.	.	.	.	.	.	.	.	.
.	16en/	.	16a\	.	.	.	.	.	.	.	.	.	.	.	.	.	.	.	.	.	.
.	16cc#X/	.	16gg\JJ	.	.	.	.	.	.	.	.	.	.	.	.	.	.	.	.	.	.
*	*	*	*Xrep	*	*	*	*	*	*	*	*	*	*	*	*	*	*	*	*	*	*
!	!	!	!LO:LB:g=original	!	!	!	!	!	!	!	!	!	!	!	!	!	!	!	!	!	!
=-	=-	=-	=-	=-	=-	=-	=-	=-	=-	=-	=-	=-	=-	=-	=-	=-	=-	=-	=-	=-	=-
!	!	!	!	!	!	!	!	!	!	!LO:SIC:v:s=4en\	!	!	!	!	!	!	!	!	!	!	!
.	16en/	.	16a\LL	.	4A\	-sum	4A\	-sum	.	4e-\	-sum	4cc#\	-sum	.	.	.	.	.	.	.	.
.	16cc#X/	.	16gg\	.	.	.	.	.	.	.	.	.	.	.	.	.	.	.	.	.	.
.	16en/	.	16a\	.	.	.	.	.	.	.	.	.	.	.	.	.	.	.	.	.	.
.	16cc#X/JJ	.	16gg\JJ	.	.	.	.	.	.	.	.	.	.	.	.	.	.	.	.	.	.
=20	=20	=20	=20	=20	=20	=20	=20	=20	=20	=20	=20	=20	=20	=20	=20	=20	=20	=20	=20	=20	=20
2.ryy	16f/LL	.	16a\LL	.	8D\	Chri-	8A\	X-	.	8f\	X-	8dd\	Chri-	.	2.r	.	2.r	.	2.dd\	2.ff\	.
.	16dd/	.	16ff\	.	.	.	.	.	.	.	.	.	.	.	.	.	.	.	.	.	.
.	16f/	.	16a\	.	8D\	-stu(m)	8A\	-tum	.	8f\	-tum	8dd\	-stum	.	.	.	.	.	.	.	.
.	16dd/	.	16ff\JJ	.	.	.	.	.	.	.	.	.	.	.	.	.	.	.	.	.	.
!	!	!	!	!	!	!	!	!	!	!	!	!LO:LB:g=original	!	!	!	!	!	!	!	!	!
=-	=-	=-	=-	=-	=-	=-	=-	=-	=-	=-	=-	=-	=-	=-	=-	=-	=-	=-	=-	=-	=-
*	*	*	*rep	*	*	*	*	*	*	*	*	*	*	*	*	*	*	*	*	*	*
.	16f/	.	16a\LL	.	4D\	fi-	4A\	Fi-	.	8f\	Fi-	4dd\	fi-	.	.	.	.	.	.	.	.
.	16dd/	.	16ff\	.	.	.	.	.	.	.	.	.	.	.	.	.	.	.	.	.	.
.	16f/	.	16a\	.	.	.	.	.	.	16f\	-li-	.	.	.	.	.	.	.	.	.	.
.	16dd/	.	16ff\JJ	.	.	.	.	.	.	16f\	-u(m)	.	.	.	.	.	.	.	.	.	.
*	*	*	*Xrep	*	*	*	*	*	*	*	*	*	*	*	*	*	*	*	*	*	*
*	*	*	*rep	*	*	*	*	*	*	*	*	*	*	*	*	*	*	*	*	*	*
.	16f/	.	16a\LL	.	8D\	-li-	8A\	-li-	.	8f\	De-	8dd\	-li-	.	.	.	.	.	.	.	.
.	16dd/	.	16ff\	.	.	.	.	.	.	.	.	.	.	.	.	.	.	.	.	.	.
.	16f/	.	16a\	.	8D\	-um	8A\	-um	.	8f\	-i	8dd\	-um	.	.	.	.	.	.	.	.
.	16dd/JJ	.	16ff\JJ	.	.	.	.	.	.	.	.	.	.	.	.	.	.	.	.	.	.
*	*	*	*Xrep	*	*	*	*	*	*	*	*	*	*	*	*	*	*	*	*	*	*
!	!LO:LB:g=original	!	!	!	!	!	!	!	!	!	!	!	!	!	!	!	!	!	!	!	!
=21	=21	=21	=21	=21	=21	=21	=21	=21	=21	=21	=21	=21	=21	=21	=21	=21	=21	=21	=21	=21	=21
2.ryy	16d/LL	.	16g\LL	.	8G\	De-	8d\	De-	.	8g\	u-	8ff\	De-	.	2.r	.	2.r	.	2.dd\	2.ff\	.
.	16bn/	.	16ff\	.	.	.	.	.	.	.	.	.	.	.	.	.	.	.	.	.	.
.	16d/	.	16g\	.	8G\	-i	8d\	-i	.	8g\	-ni	8ff\	-i	.	.	.	.	.	.	.	.
.	16bn/	.	16ff\JJ	.	.	.	.	.	.	.	.	.	.	.	.	.	.	.	.	.	.
*	*	*	*rep	*	*	*	*	*	*	*	*	*	*	*	*	*	*	*	*	*	*
.	16d/	.	16g\LL	.	8G\	u-	8d\	u-	.	8g\	ge-	8ff\	u-	.	.	.	.	.	.	.	.
.	16bn/	.	16ff\	.	.	.	.	.	.	.	.	.	.	.	.	.	.	.	.	.	.
.	16d/	.	16g\	.	8G\	-ni-	8d\	-ni-	.	8g\	-ni-	8ff\	-ni-	.	.	.	.	.	.	.	.
.	16bn/	.	16ff\JJ	.	.	.	.	.	.	.	.	.	.	.	.	.	.	.	.	.	.
*	*	*	*Xrep	*	*	*	*	*	*	*	*	*	*	*	*	*	*	*	*	*	*
!	!	!	!	!	!	!	!	!	!	!LO:LB:g=original	!	!	!	!	!	!	!	!	!	!	!
=-	=-	=-	=-	=-	=-	=-	=-	=-	=-	=-	=-	=-	=-	=-	=-	=-	=-	=-	=-	=-	=-
*	*	*	*rep	*	*	*	*	*	*	*	*	*	*	*	*	*	*	*	*	*	*
.	16d/	.	16g\LL	.	16G\	-ge-	8d\	-ge-	.	4g\	-tum	8ff\	-ge-	.	.	.	.	.	.	.	.
.	16bn/	.	16ff\	.	16G\	-ni-	.	.	.	.	.	.	.	.	.	.	.	.	.	.	.
!	!	!	!	!	!LO:LB:g=original	!	!	!	!	!	!	!	!	!	!	!	!	!	!	!	!
=-	=-	=-	=-	=-	=-	=-	=-	=-	=-	=-	=-	=-	=-	=-	=-	=-	=-	=-	=-	=-	=-
.	16d/	.	16g\	.	8G\	-tum	16d\	-ni-	.	.	.	16ff\	-ni-	.	.	.	.	.	.	.	.
.	16bn/JJ	.	16ff\JJ	.	.	.	16d\	-tum	.	.	.	16ff\	-tum	.	.	.	.	.	.	.	.
*	*	*	*Xrep	*	*	*	*	*	*	*	*	*	*	*	*	*	*	*	*	*	*
!	!	!	!	!	!	!	!LO:LB:g=original	!	!	!	!	!	!	!	!	!	!	!	!	!	!
=22	=22	=22	=22	=22	=22	=22	=22	=22	=22	=22	=22	=22	=22	=22	=22	=22	=22	=22	=22	=22	=22
!	!LO:SIC:v:s=16en/LL	!	!	!	!	!	!	!	!	!	!	!	!	!	!	!	!	!	!	!	!
2.ryy	16e-/LL	.	16g\LL	.	8C/	et	8c\	et	.	8g\	et	8een\	et	.	2.r	.	2.r	.	2.cc\	2.ee-\	.
.	16cc/	.	16een\	.	.	.	.	.	.	.	.	.	.	.	.	.	.	.	.	.	.
!	!LO:SIC:v:s=16en/	!	!	!	!	!	!	!	!	!	!	!	!	!	!	!	!	!	!	!	!
.	16e-/	.	16g\	.	8C/	ex	8c\	ex	.	8g\	ex	8ee\	ex	.	.	.	.	.	.	.	.
.	16cc/	.	16ee\JJ	.	.	.	.	.	.	.	.	.	.	.	.	.	.	.	.	.	.
*	*	*	*rep	*	*	*	*	*	*	*	*	*	*	*	*	*	*	*	*	*	*
!	!LO:SIC:v:s=16en/	!	!	!	!	!	!	!	!	!	!	!	!	!	!	!	!	!	!	!	!
.	16e-/	.	16g\LL	.	8C/	Pa-	8c\	Pa-	.	8g\	pa-	8ee\	pa-	.	.	.	.	.	.	.	.
.	16cc/	.	16ee\	.	.	.	.	.	.	.	.	.	.	.	.	.	.	.	.	.	.
!	!LO:SIC:v:s=16en/	!	!	!	!	!	!	!	!	!	!	!	!	!	!	!	!	!	!	!	!
.	16e-/	.	16g\	.	8C/	-tre	8c\	-tre	.	8g\	-tre	8ee\	-tre	.	.	.	.	.	.	.	.
.	16cc/	.	16ee\JJ	.	.	.	.	.	.	.	.	.	.	.	.	.	.	.	.	.	.
*	*	*	*Xrep	*	*	*	*	*	*	*	*	*	*	*	*	*	*	*	*	*	*
*	*	*	*rep	*	*	*	*	*	*	*	*	*	*	*	*	*	*	*	*	*	*
!	!LO:SIC:v:s=16en/	!	!	!	!	!	!	!	!	!	!	!	!	!	!	!	!	!	!	!	!
.	16e-/	.	16g\LL	.	8C/	na-	8c\	na-	.	8g\	na-	8ee\	na-	.	.	.	.	.	.	.	.
.	16cc/	.	16ee\	.	.	.	.	.	.	.	.	.	.	.	.	.	.	.	.	.	.
!	!LO:SIC:v:s=16en/	!	!	!	!	!	!	!	!	!	!	!	!	!	!	!	!	!	!	!	!
.	16e-/	.	16g\	.	8C/	-tum	8c\	-tum	.	8g\	-tum	8ee\	-tu(m)	.	.	.	.	.	.	.	.
.	16cc/JJ	.	16ee\JJ	.	.	.	.	.	.	.	.	.	.	.	.	.	.	.	.	.	.
*	*	*	*Xrep	*	*	*	*	*	*	*	*	*	*	*	*	*	*	*	*	*	*
=23	=23	=23	=23	=23	=23	=23	=23	=23	=23	=23	=23	=23	=23	=23	=23	=23	=23	=23	=23	=23	=23
2.ryy	16d/LL	.	16g\LL	.	8G\	an-	8d\	an-	.	8g\	an-	8ff\	an-	.	2.r	.	2.r	.	2.dd\	2.ff\	.
.	16bn/	.	16ff\	.	.	.	.	.	.	.	.	.	.	.	.	.	.	.	.	.	.
.	16d/	.	16g\	.	8G\	-te	8d\	-te	.	8g\	-te	8ff\	-te	.	.	.	.	.	.	.	.
.	16bn/	.	16ff\JJ	.	.	.	.	.	.	.	.	.	.	.	.	.	.	.	.	.	.
*	*	*	*rep	*	*	*	*	*	*	*	*	*	*	*	*	*	*	*	*	*	*
.	16d/	.	16g\LL	.	8G\	o-	8d\	o-	.	8g\	o-	8ff\	om-	.	.	.	.	.	.	.	.
.	16bn/	.	16ff\	.	.	.	.	.	.	.	.	.	.	.	.	.	.	.	.	.	.
.	16d/	.	16g\	.	8G\	-mni-	16d\	-mni-	.	16g\	-mni-	16ff\	-ni-	.	.	.	.	.	.	.	.
.	16bn/	.	16ff\JJ	.	.	.	16d\	-a	.	16g\	-a	16ff\	-a	.	.	.	.	.	.	.	.
*	*	*	*Xrep	*	*	*	*	*	*	*	*	*	*	*	*	*	*	*	*	*	*
*	*	*	*rep	*	*	*	*	*	*	*	*	*	*	*	*	*	*	*	*	*	*
.	16d/	.	16g\LL	.	16G\	-a	8d\	ſe-	.	8g\	se-	8ff\	se-	.	.	.	.	.	.	.	.
.	16bn/	.	16ff\	.	16G\	ſe-	.	.	.	.	.	.	.	.	.	.	.	.	.	.	.
.	16d/	.	16g\	.	8G\	-cu-	8d\	-cu-	.	8g\	-cu-	8ff\	-cu-	.	.	.	.	.	.	.	.
.	16bn/JJ	.	16ff\JJ	.	.	.	.	.	.	.	.	.	.	.	.	.	.	.	.	.	.
*	*Xtremolo	*	*Xrep	*	*	*	*	*	*	*	*	*	*	*	*	*	*	*	*	*	*
!	!	!	!	!	!	!	!	!	!	!	!	!LO:LB:g=original	!	!	!	!	!	!	!	!	!
=24	=24	=24	=24	=24	=24	=24	=24	=24	=24	=24	=24	=24	=24	=24	=24	=24	=24	=24	=24	=24	=24
!	!	!	!	!	!	!	!	!	!	!	!	!	!	!	!	!	!	!	!	!LO:SIC:v:s=4een\	!
2.ryy	4cc\	.	4een\	.	4C/	-la	4c\	-la	.	4g\	-la	4een\	-la	.	2.r	.	2.r	.	4cc\	4ee-\	.
.	4c/	.	8r	.	4r	.	4r	.	.	4r	.	4r	.	.	.	.	.	.	4r	4ccc\	.
!	!	!	!	!LO:DY:a:t=p.	!	!	!	!	!	!	!	!	!	!	!	!	!	!	!	!	!
.	.	.	8cc\L	p	.	.	.	.	.	.	.	.	.	.	.	.	.	.	.	.	.
.	4r	.	8cc\	.	4r	.	4r	.	.	4r	.	4r	.	.	.	.	.	.	4r	4r	.
.	.	.	8cc\J	.	.	.	.	.	.	.	.	.	.	.	.	.	.	.	.	.	.
!	!	!	!LO:LB:g=original	!	!	!	!	!	!	!	!	!	!	!	!	!	!	!	!	!	!
=25	=25	=25	=25	=25	=25	=25	=25	=25	=25	=25	=25	=25	=25	=25	=25	=25	=25	=25	=25	=25	=25
!	!	!LO:DY:a:t=p.	!	!	!	!	!	!	!	!	!	!	!	!	!	!	!	!	!	!	!
2.ryy	8c/	p	8cc\L	.	0.r	.	4c\	De-	.	0.r	.	0.r	.	.	2.r	.	2.r	.	0.r	0.r	.
.	4c/	.	8b-\	.	.	.	.	.	.	.	.	.	.	.	.	.	.	.	.	.	.
.	.	.	8b-\	.	.	.	4c\	-u(m)	.	.	.	.	.	.	.	.	.	.	.	.	.
.	4c/	.	8b-\J	.	.	.	.	.	.	.	.	.	.	.	.	.	.	.	.	.	.
.	.	.	8b-\L	.	.	.	4c\	de	.	.	.	.	.	.	.	.	.	.	.	.	.
.	8c/	.	8cc\J	.	.	.	.	.	.	.	.	.	.	.	.	.	.	.	.	.	.
=26	=26	=26	=26	=26	=26	=26	=26	=26	=26	=26	=26	=26	=26	=26	=26	=26	=26	=26	=26	=26	=26
2.ryy	8c/	.	8b-/L	.	.	.	2c\	De-	.	.	.	.	.	.	2.r	.	2.r	.	.	.	.
.	4c/	.	8a/	.	.	.	.	.	.	.	.	.	.	.	.	.	.	.	.	.	.
.	.	.	8a/	.	.	.	.	.	.	.	.	.	.	.	.	.	.	.	.	.	.
.	4c/	.	8a/J	.	.	.	.	.	.	.	.	.	.	.	.	.	.	.	.	.	.
.	.	.	8a/L	.	.	.	4c\	-o	.	.	.	.	.	.	.	.	.	.	.	.	.
.	8c/	.	8b-/J	.	.	.	.	.	.	.	.	.	.	.	.	.	.	.	.	.	.
=27	=27	=27	=27	=27	=27	=27	=27	=27	=27	=27	=27	=27	=27	=27	=27	=27	=27	=27	=27	=27	=27
2.ryy	8c/	.	8cc\L	.	.	.	4c\	Lu-	.	.	.	.	.	.	2.r	.	2.r	.	.	.	.
.	4c/	.	8b-\	.	.	.	.	.	.	.	.	.	.	.	.	.	.	.	.	.	.
.	.	.	8b-\	.	.	.	4c\	-men	.	.	.	.	.	.	.	.	.	.	.	.	.
.	4c/	.	8b-\J	.	.	.	.	.	.	.	.	.	.	.	.	.	.	.	.	.	.
.	.	.	8b-\L	.	.	.	4c\	de	.	.	.	.	.	.	.	.	.	.	.	.	.
.	8c/	.	8cc\J	.	.	.	.	.	.	.	.	.	.	.	.	.	.	.	.	.	.
=28	=28	=28	=28	=28	=28	=28	=28	=28	=28	=28	=28	=28	=28	=28	=28	=28	=28	=28	=28	=28	=28
2.ryy	8c/	.	8b-/L	.	.	.	4.c\	lu-	.	.	.	.	.	.	2.r	.	2.r	.	.	.	.
.	4c/	.	8a/	.	.	.	.	.	.	.	.	.	.	.	.	.	.	.	.	.	.
.	.	.	8a/	.	.	.	.	.	.	.	.	.	.	.	.	.	.	.	.	.	.
.	4c/	.	8a/J	.	.	.	8c\	-mi-	.	.	.	.	.	.	.	.	.	.	.	.	.
!	!	!	!LO:TX:t=P:problem:mixedbeam	!	!	!	!	!	!	!	!	!	!	!	!	!	!	!	!	!	!
.	.	.	8a/L	.	.	.	4c\	-ne	.	.	.	.	.	.	.	.	.	.	.	.	.
.	8a/	.	8ff\J	.	.	.	.	.	.	.	.	.	.	.	.	.	.	.	.	.	.
!	!	!	!	!	!	!	!LO:LB:g=original	!	!	!	!	!	!	!	!	!	!	!	!	!	!
=29	=29	=29	=29	=29	=29	=29	=29	=29	=29	=29	=29	=29	=29	=29	=29	=29	=29	=29	=29	=29	=29
2.ryy	8a/	.	8gg\L	.	0.r	.	2f\	De-	.	0.r	.	0.r	.	.	2.r	.	2.r	.	0.r	0.r	.
.	4a/	.	8ff\	.	.	.	.	.	.	.	.	.	.	.	.	.	.	.	.	.	.
.	.	.	8ff\	.	.	.	.	.	.	.	.	.	.	.	.	.	.	.	.	.	.
.	4a/	.	8ff\J	.	.	.	.	.	.	.	.	.	.	.	.	.	.	.	.	.	.
.	.	.	8een\L	.	.	.	4f\	-um	.	.	.	.	.	.	.	.	.	.	.	.	.
.	8a/	.	8ff\J	.	.	.	.	.	.	.	.	.	.	.	.	.	.	.	.	.	.
=30	=30	=30	=30	=30	=30	=30	=30	=30	=30	=30	=30	=30	=30	=30	=30	=30	=30	=30	=30	=30	=30
2.ryy	8g/	.	8gg\L	.	.	.	4f\	ve-	.	.	.	.	.	.	2.r	.	2.r	.	.	.	.
.	4g/	.	8ff\	.	.	.	.	.	.	.	.	.	.	.	.	.	.	.	.	.	.
.	.	.	8ff\	.	.	.	4f\	-rum	.	.	.	.	.	.	.	.	.	.	.	.	.
.	4g/	.	8ff\J	.	.	.	.	.	.	.	.	.	.	.	.	.	.	.	.	.	.
.	.	.	8ee-\L	.	.	.	4f\	de	.	.	.	.	.	.	.	.	.	.	.	.	.
.	8g/	.	8ff\J	.	.	.	.	.	.	.	.	.	.	.	.	.	.	.	.	.	.
!	!LO:LB:g=original	!	!	!	!	!	!	!	!	!	!	!	!	!	!	!	!	!	!	!	!
=31	=31	=31	=31	=31	=31	=31	=31	=31	=31	=31	=31	=31	=31	=31	=31	=31	=31	=31	=31	=31	=31
2.ryy	4g/	.	2.een\	.	.	.	2en\	De-	.	.	.	.	.	.	2.r	.	2.r	.	.	.	.
.	8f/L	.	.	.	.	.	.	.	.	.	.	.	.	.	.	.	.	.	.	.	.
!	!LO:SIC:v:s=8en	!	!	!	!	!	!	!	!	!	!	!	!	!	!	!	!	!	!	!	!
.	8e-/	.	.	.	.	.	.	.	.	.	.	.	.	.	.	.	.	.	.	.	.
.	8d/	.	.	.	.	.	4e\	-o	.	.	.	.	.	.	.	.	.	.	.	.	.
.	8c/J	.	.	.	.	.	.	.	.	.	.	.	.	.	.	.	.	.	.	.	.
!	!	!	!LO:LB:g=original	!	!	!	!	!	!	!	!	!	!	!	!	!	!	!	!	!	!
=32	=32	=32	=32	=32	=32	=32	=32	=32	=32	=32	=32	=32	=32	=32	=32	=32	=32	=32	=32	=32	=32
2.ryy	2.Bn/	.	8een\L	.	.	.	2.f\	ve-	.	.	.	.	.	.	2.r	.	2.r	.	.	.	.
.	.	.	8ff\	.	.	.	.	.	.	.	.	.	.	.	.	.	.	.	.	.	.
.	.	.	8gg\	.	.	.	.	.	.	.	.	.	.	.	.	.	.	.	.	.	.
.	.	.	8ff\J	.	.	.	.	.	.	.	.	.	.	.	.	.	.	.	.	.	.
.	.	.	8ee\L	.	.	.	.	.	.	.	.	.	.	.	.	.	.	.	.	.	.
.	.	.	8ff\J	.	.	.	.	.	.	.	.	.	.	.	.	.	.	.	.	.	.
=33	=33	=33	=33	=33	=33	=33	=33	=33	=33	=33	=33	=33	=33	=33	=33	=33	=33	=33	=33	=33	=33
!	!	!	!LO:SIC:v:s=2een\	!	!	!	!LO:SIC:v:s=4en\	!	!	!	!	!	!	!	!	!	!	!	!	!	!
2.ryy	8c/L	.	2.ee-\	.	2.r	.	4e-\	-ro	.	2.r	.	2.r	.	.	2.r	.	2.r	.	2.r	2.r	.
.	8g/	.	.	.	.	.	.	.	.	.	.	.	.	.	.	.	.	.	.	.	.
.	8b-X/	.	.	.	.	.	4r	.	.	.	.	.	.	.	.	.	.	.	.	.	.
.	8g/	.	.	.	.	.	.	.	.	.	.	.	.	.	.	.	.	.	.	.	.
.	8cc/	.	.	.	.	.	4r	.	.	.	.	.	.	.	.	.	.	.	.	.	.
.	8b-/J	.	.	.	.	.	.	.	.	.	.	.	.	.	.	.	.	.	.	.	.
=34	=34	=34	=34	=34	=34	=34	=34	=34	=34	=34	=34	=34	=34	=34	=34	=34	=34	=34	=34	=34	=34
*	*tremolo	*	*	*	*	*	*	*	*	*	*	*	*	*	*	*	*	*	*	*	*
!	!	!LO:DY:a:t=for	!	!	!	!	!	!	!	!	!	!	!	!	!	!	!	!	!	!	!
2.ryy	16a/LL	f	16ff\LL	.	4.F\	Ge-	4.c\	ge-	.	4.a\	Ge-	4.ff\	Ge-	.	4cc\	.	4cc\	.	2.a\	2.ff\	.
.	16a/	.	16gg\	.	.	.	.	.	.	.	.	.	.	.	.	.	.	.	.	.	.
.	16a/	.	16aa\	.	.	.	.	.	.	.	.	.	.	.	.	.	.	.	.	.	.
.	16a/	.	16gg\JJ	.	.	.	.	.	.	.	.	.	.	.	.	.	.	.	.	.	.
.	16a/	.	8ff\L	.	.	.	.	.	.	.	.	.	.	.	4cc\	.	4cc\	.	.	.	.
.	16a/	.	.	.	.	.	.	.	.	.	.	.	.	.	.	.	.	.	.	.	.
.	16a/	.	8ff\	.	8F\	-ni-	8c\	-ni-	.	8a\	-ni-	8ff\	-ni-	.	.	.	.	.	.	.	.
.	16a/JJ	.	.	.	.	.	.	.	.	.	.	.	.	.	.	.	.	.	.	.	.
*	*Xtremolo	*	*	*	*	*	*	*	*	*	*	*	*	*	*	*	*	*	*	*	*
.	16a/LL	.	8ff\	.	8F\	-tum	8c\	-tum	.	8a\	-tu(m)	8ff\	-tum	.	4cc\	.	4r	.	.	.	.
.	16a/	.	.	.	.	.	.	.	.	.	.	.	.	.	.	.	.	.	.	.	.
.	16a/	.	8ff\J	.	8F\	non	8c\	non	.	8a\	non	8ff\	non	.	.	.	.	.	.	.	.
.	16a/JJ	.	.	.	.	.	.	.	.	.	.	.	.	.	.	.	.	.	.	.	.
!	!	!	!	!	!	!	!	!	!	!LO:LB:g=original	!	!	!	!	!	!	!	!	!	!	!
=35	=35	=35	=35	=35	=35	=35	=35	=35	=35	=35	=35	=35	=35	=35	=35	=35	=35	=35	=35	=35	=35
*	*tremolo	*	*	*	*	*	*	*	*	*	*	*	*	*	*	*	*	*	*	*	*
2.ryy	16f\LL	.	8ff\L	.	8A\	fa-	8c\	fa-	.	8f\	fa-	8ee-X\	fa-	.	2cc\	.	2cc\	.	2.cc\	2.eenX\	.
.	16cc\	.	.	.	.	.	.	.	.	.	.	.	.	.	.	.	.	.	.	.	.
.	16f\	.	8ee-X\J	.	8A\	-ctum	8c\	-ctu(m)	.	8f\	-ctum	8ee-\	-ctum	.	.	.	.	.	.	.	.
.	16cc\	.	.	.	.	.	.	.	.	.	.	.	.	.	.	.	.	.	.	.	.
!	!	!	!	!	!LO:LB:g=original	!	!	!	!	!	!	!	!	!	!	!	!	!	!	!	!
=-	=-	=-	=-	=-	=-	=-	=-	=-	=-	=-	=-	=-	=-	=-	=-	=-	=-	=-	=-	=-	=-
.	16f\	.	2ee-\	.	8A\	Con-	8c\	Con-	.	8f\	Con-	8ee-\	Con-	.	.	.	.	.	.	.	.
.	16cc\	.	.	.	.	.	.	.	.	.	.	.	.	.	.	.	.	.	.	.	.
.	16f\	.	.	.	8A\	-sub-	8c\	-sub-	.	8f\	-sub-	8ee-\	-sub-	.	.	.	.	.	.	.	.
.	16cc\	.	.	.	.	.	.	.	.	.	.	.	.	.	.	.	.	.	.	.	.
.	16f\	.	.	.	8A\	-sta-	8c\	-stan-	.	8f\	-stan-	8ee-\	-stan-	.	4cc\	.	4cc\	.	.	.	.
.	16cc\	.	.	.	.	.	.	.	.	.	.	.	.	.	.	.	.	.	.	.	.
.	16f\	.	.	.	8A\	-nti-	8c\	-ti-	.	8f\	-ti-	8ee-\	-ti-	.	.	.	.	.	.	.	.
.	16cc\JJ	.	.	.	.	.	.	.	.	.	.	.	.	.	.	.	.	.	.	.	.
=36	=36	=36	=36	=36	=36	=36	=36	=36	=36	=36	=36	=36	=36	=36	=36	=36	=36	=36	=36	=36	=36
2.ryy	16f/LL	.	16dd\LL	.	8B-\	-a-	8B-\	-a-	.	8f\	-a-	8dd\	-a-	.	2b-\	.	2dd\	.	2.b-\	2.dd\	.
.	16f/	.	16cc\	.	.	.	.	.	.	.	.	.	.	.	.	.	.	.	.	.	.
.	16f/	.	16dd\	.	8B-\	-lem	8B-\	-lem	.	8f\	-lem	8dd\	-lem	.	.	.	.	.	.	.	.
.	16f/	.	16ee-\JJ	.	.	.	.	.	.	.	.	.	.	.	.	.	.	.	.	.	.
.	16f/	.	16dd\LL	.	4B-\	Pa-	4B-\	Pa-	.	4f\	Pa-	4dd\	Pa-	.	.	.	.	.	.	.	.
.	16f/	.	16dd\	.	.	.	.	.	.	.	.	.	.	.	.	.	.	.	.	.	.
.	16f/	.	16dd\	.	.	.	.	.	.	.	.	.	.	.	.	.	.	.	.	.	.
.	16f/	.	16dd\JJ	.	.	.	.	.	.	.	.	.	.	.	.	.	.	.	.	.	.
.	16f/	.	8dd\L	.	4B-\	-tri	4d\	-tri	.	4f\	-tri	4dd\	-tri	.	4cc\	.	4dd\	.	.	.	.
.	16f/	.	.	.	.	.	.	.	.	.	.	.	.	.	.	.	.	.	.	.	.
.	16f/	.	8dd\J	.	.	.	.	.	.	.	.	.	.	.	.	.	.	.	.	.	.
.	16f/JJ	.	.	.	.	.	.	.	.	.	.	.	.	.	.	.	.	.	.	.	.
*	*Xtremolo	*	*	*	*	*	*	*	*	*	*	*	*	*	*	*	*	*	*	*	*
!	!	!	!	!	!	!	!LO:LB:g=original	!	!	!	!	!	!	!	!	!	!	!	!	!	!
=37	=37	=37	=37	=37	=37	=37	=37	=37	=37	=37	=37	=37	=37	=37	=37	=37	=37	=37	=37	=37	=37
2.ryy	16c/LL	.	16een\LL	.	8B-\	per	2c\	per	.	2g\	per-	2een\	per	.	4cc\	.	4cc\	.	2.g/	4eeX\	.
.	16g/	.	16dd\	.	.	.	.	.	.	.	.	.	.	.	.	.	.	.	.	.	.
.	16c/	.	16ee\	.	8B-\	.	.	.	.	.	.	.	.	.	.	.	.	.	.	.	.
.	16g/JJ	.	16ff\JJ	.	.	.	.	.	.	.	.	.	.	.	.	.	.	.	.	.	.
*	*rep	*	*tremolo	*	*	*	*	*	*	*	*	*	*	*	*	*	*	*	*	*	*
.	16c/LL	.	8ee\L	.	4B-\	quem	.	.	.	.	.	.	.	.	4cc\	.	4cc\	.	.	4ee\	.
.	16g/	.	.	.	.	.	.	.	.	.	.	.	.	.	.	.	.	.	.	.	.
.	16c/	.	8ee\	.	.	.	.	.	.	.	.	.	.	.	.	.	.	.	.	.	.
.	16g/JJ	.	.	.	.	.	.	.	.	.	.	.	.	.	.	.	.	.	.	.	.
*	*Xrep	*	*	*	*	*	*	*	*	*	*	*	*	*	*	*	*	*	*	*	*
*	*rep	*	*	*	*	*	*	*	*	*	*	*	*	*	*	*	*	*	*	*	*
.	16c/LL	.	8ee\	.	4B-\	.	4c\	que(m)	.	4g\	-quem	4ee\	que(m)	.	4cc\	.	4cc\	.	.	4ee\	.
.	16g/	.	.	.	.	.	.	.	.	.	.	.	.	.	.	.	.	.	.	.	.
.	16c/	.	8ee\J	.	.	.	.	.	.	.	.	.	.	.	.	.	.	.	.	.	.
.	16g/JJ	.	.	.	.	.	.	.	.	.	.	.	.	.	.	.	.	.	.	.	.
*	*Xrep	*	*Xtremolo	*	*	*	*	*	*	*	*	*	*	*	*	*	*	*	*	*	*
!	!	!	!	!	!	!	!	!	!	!	!	!	!	!	!	!	!	!	!LO:LB:g=original	!	!
=38	=38	=38	=38	=38	=38	=38	=38	=38	=38	=38	=38	=38	=38	=38	=38	=38	=38	=38	=38	=38	=38
*	*tremolo	*	*	*	*	*	*	*	*	*	*	*	*	*	*	*	*	*	*	*	*
2.ryy	16a/LL	.	16ff\LL	.	4A\	O-	4.c\	o-	.	4.a\	o-	4.ff\	om-	.	4f/	.	4cc\	.	2.a\	2.ff\	.
.	16a/	.	16ee-\	.	.	.	.	.	.	.	.	.	.	.	.	.	.	.	.	.	.
.	16a/	.	16ff\	.	.	.	.	.	.	.	.	.	.	.	.	.	.	.	.	.	.
.	16a/	.	16gg\JJ	.	.	.	.	.	.	.	.	.	.	.	.	.	.	.	.	.	.
*	*	*	*tremolo	*	*	*	*	*	*	*	*	*	*	*	*	*	*	*	*	*	*
.	16a/	.	8ff\L	.	4F\	-mni-	.	.	.	.	.	.	.	.	4r	.	4r	.	.	.	.
.	16a/	.	.	.	.	.	.	.	.	.	.	.	.	.	.	.	.	.	.	.	.
.	16a/	.	8ff\	.	.	.	8c\	-mni-	.	8a\	-mni-	8ff\	-ni-	.	.	.	.	.	.	.	.
.	16a/	.	.	.	.	.	.	.	.	.	.	.	.	.	.	.	.	.	.	.	.
.	16a/	.	8ff\	.	4d\	-a	8d\	-a	.	4a\	-a	4ff\	-a	.	4r	.	4r	.	.	.	.
.	16a/	.	.	.	.	.	.	.	.	.	.	.	.	.	.	.	.	.	.	.	.
.	16a/	.	8ff\J	.	.	.	8d\	fa-	.	.	.	.	.	.	.	.	.	.	.	.	.
.	16a/JJ	.	.	.	.	.	.	.	.	.	.	.	.	.	.	.	.	.	.	.	.
*	*	*	*Xtremolo	*	*	*	*	*	*	*	*	*	*	*	*	*	*	*	*	*	*
!	!	!	!LO:LB:g=original	!	!	!	!	!	!	!	!	!LO:LB:g=original	!	!	!	!	!LO:LB:g=original	!	!	!	!
=39	=39	=39	=39	=39	=39	=39	=39	=39	=39	=39	=39	=39	=39	=39	=39	=39	=39	=39	=39	=39	=39
!	!	!	!	!	!	!	!	!	!	!	!	!	!	!	!LO:TX:t=P:problem:brak kreski taktowej	!	!	!	!	!	!
2.ryy	16g/LL	.	16ff\LL	.	4B-\	fa-	4d\	-cta	.	2g\	fa-	2ff\	fa-	.	2.r	.	4dd\	.	8dd\L	8bb-\L	.
.	16g/	.	16ff\	.	.	.	.	.	.	.	.	.	.	.	.	.	.	.	.	.	.
.	16g/	.	16ff\	.	.	.	.	.	.	.	.	.	.	.	.	.	.	.	8b-\J	8gg\J	.
.	16g/	.	16ff\JJ	.	.	.	.	.	.	.	.	.	.	.	.	.	.	.	.	.	.
*	*	*	*tremolo	*	*	*	*	*	*	*	*	*	*	*	*	*	*	*	*	*	*
.	16g/	.	16ff\LL	.	4c\	.	4c\	.	.	.	.	.	.	.	.	.	4cc\	.	4a\	4ff\	.
.	16g/	.	16ff\	.	.	.	.	.	.	.	.	.	.	.	.	.	.	.	.	.	.
.	16g/	.	16ff\	.	.	.	.	.	.	.	.	.	.	.	.	.	.	.	.	.	.
.	16g/	.	16ff\JJ	.	.	.	.	.	.	.	.	.	.	.	.	.	.	.	.	.	.
!	!	!	!	!	!	!	!	!	!	!	!	!LO:SIC:v:s=4een\	!	!	!	!	!	!	!	!	!
.	16g/	.	16een\LL	.	4C/	-cta	4c\	.	.	4g\	-cta	4ee-\	-cta	.	.	.	4cc\	.	4g\	4eeX\	.
.	16g/	.	16ee\	.	.	.	.	.	.	.	.	.	.	.	.	.	.	.	.	.	.
.	16g/	.	16ee\	.	.	.	.	.	.	.	.	.	.	.	.	.	.	.	.	.	.
.	16g/JJ	.	16ee\JJ	.	.	.	.	.	.	.	.	.	.	.	.	.	.	.	.	.	.
*	*Xtremolo	*	*Xtremolo	*	*	*	*	*	*	*	*	*	*	*	*	*	*	*	*	*	*
!	!	!	!	!	!	!	!	!	!	!	!	!	!	!	!	!	!	!	!	!LO:LB:g=original	!
=40	=40	=40	=40	=40	=40	=40	=40	=40	=40	=40	=40	=40	=40	=40	=40	=40	=40	=40	=40	=40	=40
2.ryy	4a/	.	4ff\	.	4F\	sunt	4c\	sunt	.	4a\	sunt	4ff\	sunt	.	2.ryy	.	4cc\	.	4a\	4ff\	.
.	4r	.	8r	.	4r	.	4r	.	.	4r	.	4r	.	.	.	.	4r	.	4r	4r	.
!	!	!	!	!LO:DY:a:t=p.:rj	!	!	!	!	!	!	!	!	!	!	!	!	!	!	!	!	!
.	.	.	8ff\L	p	.	.	.	.	.	.	.	.	.	.	.	.	.	.	.	.	.
.	4r	.	8ee-\	.	4r	.	4r	.	.	4r	.	4r	.	.	.	.	4r	.	4r	4r	.
.	.	.	8dd\J	.	.	.	.	.	.	.	.	.	.	.	.	.	.	.	.	.	.
=41	=41	=41	=41	=41	=41	=41	=41	=41	=41	=41	=41	=41	=41	=41	=41	=41	=41	=41	=41	=41	=41
!	!	!	!	!	!	!	!	!	!	!	!	!	!	!	!LO:TX:a:t=13	!	!LO:TX:a:t=13	!	!	!	!
2.ryy	2.r	.	(4cc'\	.	2.r	.	2.r	.	.	8en\L	qui	4cc\	qui	.	2.r	.	2.r	.	0.r	0.r	.
.	.	.	.	.	.	.	.	.	.	8f\J	.	.	.	.	.	.	.	.	.	.	.
!	!	!	!	!	!	!	!	!	!	!LO:LB:g=original	!	!	!	!	!	!	!	!	!	!	!
=-	=-	=-	=-	=-	=-	=-	=-	=-	=-	=-	=-	=-	=-	=-	=-	=-	=-	=-	=-	=-	=-
.	.	.	4cc'\	.	.	.	.	.	.	8g\L	pro-	4cc\	pro-	.	.	.	.	.	.	.	.
.	.	.	.	.	.	.	.	.	.	8a\J	.	.	.	.	.	.	.	.	.	.	.
.	.	.	4cc'\)	.	.	.	.	.	.	8b-\L	-pter	4cc\	-pter	.	.	.	.	.	.	.	.
.	.	.	.	.	.	.	.	.	.	8g\J	.	.	.	.	.	.	.	.	.	.	.
!	!LO:PB:g=original	!	!	!	!	!	!	!	!	!	!	!	!	!	!	!	!	!	!	!	!
=42	=42	=42	=42	=42	=42	=42	=42	=42	=42	=42	=42	=42	=42	=42	=42	=42	=42	=42	=42	=42	=42
2.ryy	8en/L	.	2.cc\	.	4C/	Qui	4r	.	.	4a\	nos	2.cc\	nos	.	2.r	.	2.r	.	.	.	.
.	8f/	.	.	.	.	.	.	.	.	.	.	.	.	.	.	.	.	.	.	.	.
.	8g/	.	.	.	4C/	pro-	4c\	pro-	.	4r	.	.	.	.	.	.	.	.	.	.	.
.	8a/	.	.	.	.	.	.	.	.	.	.	.	.	.	.	.	.	.	.	.	.
.	8b-/	.	.	.	4C/	-pter	4c\	-pter	.	4r	.	.	.	.	.	.	.	.	.	.	.
.	8g/J	.	.	.	.	.	.	.	.	.	.	.	.	.	.	.	.	.	.	.	.
!	!	!	!	!	!LO:LB:g=original	!	!	!	!	!	!	!	!	!	!	!	!	!	!	!	!
=43	=43	=43	=43	=43	=43	=43	=43	=43	=43	=43	=43	=43	=43	=43	=43	=43	=43	=43	=43	=43	=43
*	*	*	*	*	*	*	*	*	*	*	*	*	*ij	*	*	*	*	*	*	*	*
2.ryy	4a/	.	4cc\	.	4F\	nos	4c\	nos	.	4g\	nos	4cc\	nos	.	2.r	.	2.r	.	.	.	.
*	*	*	*	*	*	*	*	*	*	*	*	*	*Xij	*	*	*	*	*	*	*	*
.	4r	.	4cc\	.	4r	.	4r	.	.	8f\L	ho-	4cc\	ho-	.	.	.	.	.	.	.	.
.	.	.	.	.	.	.	.	.	.	8g\J	.	.	.	.	.	.	.	.	.	.	.
.	4r	.	4cc\	.	4r	.	4r	.	.	8a\L	-mi-	4cc\	-mi-	.	.	.	.	.	.	.	.
.	.	.	.	.	.	.	.	.	.	8g\J	.	.	.	.	.	.	.	.	.	.	.
=44	=44	=44	=44	=44	=44	=44	=44	=44	=44	=44	=44	=44	=44	=44	=44	=44	=44	=44	=44	=44	=44
2.ryy	8r	.	2.cc#X\	.	4r	.	4r	.	.	4f\	-nes	2.cc#X\	-nes	.	2.r	.	2.r	.	.	.	.
.	8g/L	.	.	.	.	.	.	.	.	.	.	.	.	.	.	.	.	.	.	.	.
.	8f/	.	.	.	4A\	ho-	4A\	ho-	.	4r	.	.	.	.	.	.	.	.	.	.	.
.	8g/	.	.	.	.	.	.	.	.	.	.	.	.	.	.	.	.	.	.	.	.
.	8a/	.	.	.	4A\	-mi-	4A\	-mi-	.	4r	.	.	.	.	.	.	.	.	.	.	.
.	8g/J	.	.	.	.	.	.	.	.	.	.	.	.	.	.	.	.	.	.	.	.
=45	=45	=45	=45	=45	=45	=45	=45	=45	=45	=45	=45	=45	=45	=45	=45	=45	=45	=45	=45	=45	=45
2.ryy	4f/	.	4dd\	.	4D\	-nes	4A\	-nes	.	8f\L	nos-	4dd\	et	.	2.r	.	2.r	.	0.r	0.r	.
.	.	.	.	.	.	.	.	.	.	8g\J	.	.	.	.	.	.	.	.	.	.	.
.	4r	.	4dd\	.	4r	.	4r	.	.	8a\L	.	4dd\	pro-	.	.	.	.	.	.	.	.
.	.	.	.	.	.	.	.	.	.	8f\	.	.	.	.	.	.	.	.	.	.	.
.	4r	.	4dd\	.	4r	.	4r	.	.	8g\	.	4dd\	-pter	.	.	.	.	.	.	.	.
.	.	.	.	.	.	.	.	.	.	8a\J	.	.	.	.	.	.	.	.	.	.	.
=46	=46	=46	=46	=46	=46	=46	=46	=46	=46	=46	=46	=46	=46	=46	=46	=46	=46	=46	=46	=46	=46
2.ryy	8a\L	.	2.ee-X\	.	4r	.	8A\L	nos-	.	4b-\	-tram	2.ee-\	nos-	.	2.r	.	2.r	.	.	.	.
.	8b-\	.	.	.	.	.	8B-\	.	.	.	.	.	.	.	.	.	.	.	.	.	.
.	8cc\	.	.	.	4F\	pro-	8c\	.	.	4r	.	.	.	.	.	.	.	.	.	.	.
.	8a\	.	.	.	.	.	8A\	.	.	.	.	.	.	.	.	.	.	.	.	.	.
.	8b-\	.	.	.	4F\	-pter	8B-\	.	.	4r	.	.	.	.	.	.	.	.	.	.	.
.	8cc\J	.	.	.	.	.	8c\J	.	.	.	.	.	.	.	.	.	.	.	.	.	.
!	!	!	!	!	!	!	!LO:LB:g=original	!	!	!	!	!	!	!	!	!	!	!	!	!	!
=47	=47	=47	=47	=47	=47	=47	=47	=47	=47	=47	=47	=47	=47	=47	=47	=47	=47	=47	=47	=47	=47
2.ryy	4b-\	.	4dd\	.	4BB-/	nos	4d\	-stram	.	8d\L	sa-	2dd\	-tram	.	2.r	.	2.r	.	.	.	.
.	.	.	.	.	.	.	.	.	.	8e-\J	.	.	.	.	.	.	.	.	.	.	.
.	4r	.	4dd\	.	4r	.	4r	.	.	8f#X\L	-lu-	.	.	.	.	.	.	.	.	.	.
.	.	.	.	.	.	.	.	.	.	8g\J	.	.	.	.	.	.	.	.	.	.	.
.	4r	.	4dd\	.	4r	.	4r	.	.	8a\L	.	4dd\	sa-	.	.	.	.	.	.	.	.
.	.	.	.	.	.	.	.	.	.	8f#\J	.	.	.	.	.	.	.	.	.	.	.
!	!	!	!	!	!	!	!	!	!	!LO:LB:g=original	!	!	!	!	!	!	!	!	!	!	!
=48	=48	=48	=48	=48	=48	=48	=48	=48	=48	=48	=48	=48	=48	=48	=48	=48	=48	=48	=48	=48	=48
2.ryy	8f#X/L	.	2.dd\	.	4r	.	8F#X/L	ſa-	.	4g\	-tem	4dd\	-lu-	.	2.r	.	2.r	.	.	.	.
.	8g/	.	.	.	.	.	8G/J	.	.	.	.	.	.	.	.	.	.	.	.	.	.
.	8a/	.	.	.	4r	.	8A\L	-lu-	.	4r	.	4dd\	-tem	.	.	.	.	.	.	.	.
.	8b-/	.	.	.	.	.	8B-\	.	.	.	.	.	.	.	.	.	.	.	.	.	.
.	8cc/	.	.	.	8D\	ho-	8c\	.	.	4r	.	4dd\	des-	.	.	.	.	.	.	.	.
.	8a/J	.	.	.	8D\	-mi-	8A\J	.	.	.	.	.	.	.	.	.	.	.	.	.	.
!	!	!	!LO:LB:g=original	!	!	!	!	!	!	!	!	!LO:LB:g=original	!	!	!	!	!	!	!	!	!
=49	=49	=49	=49	=49	=49	=49	=49	=49	=49	=49	=49	=49	=49	=49	=49	=49	=49	=49	=49	=49	=49
2.ryy	4b-\	.	4dd\	.	4G\	-nes	4B-\	-tem	.	8d\L	de-	4dd\	-cen-	.	2.r	.	2.r	.	0.r	0.r	.
.	.	.	.	.	.	.	.	.	.	8en\J	.	.	.	.	.	.	.	.	.	.	.
.	4r	.	4gg\	.	4r	.	4r	.	.	8f\L	-scen-	4gg\	-dit	.	.	.	.	.	.	.	.
.	.	.	.	.	.	.	.	.	.	8e\	.	.	.	.	.	.	.	.	.	.	.
.	4r	.	4gg\	.	4r	.	4r	.	.	8f\	.	4gg\	de-	.	.	.	.	.	.	.	.
.	.	.	.	.	.	.	.	.	.	8e\J	.	.	.	.	.	.	.	.	.	.	.
!	!LO:LB:g=original	!	!	!	!	!	!	!	!	!	!	!	!	!	!	!	!	!	!	!	!
=50	=50	=50	=50	=50	=50	=50	=50	=50	=50	=50	=50	=50	=50	=50	=50	=50	=50	=50	=50	=50	=50
!	!	!	!	!	!	!	!	!	!	!LO:TX:t=P:problem:brak taktu, żeby się zgadzało	!	!	!	!	!	!	!	!	!	!	!
2.ryy	8e-X/L	.	2.gg\	.	4r	.	8Bn\L	De-	.	2.ryy	.	2.gg\	-ce-	.	2.r	.	2.r	.	.	.	.
.	8en/	.	.	.	.	.	8c\	.	.	.	.	.	.	.	.	.	.	.	.	.	.
.	8f/	.	.	.	4G\	de-	8d\	-scen-	.	.	.	.	.	.	.	.	.	.	.	.	.
.	8e/	.	.	.	.	.	8c\	.	.	.	.	.	.	.	.	.	.	.	.	.	.
.	8f/	.	.	.	4G\	-scen-	8d\	.	.	.	.	.	.	.	.	.	.	.	.	.	.
!	!LO:SIC:v:s=8d/J	!	!	!	!	!	!	!	!	!	!	!	!	!	!	!	!	!	!	!	!
.	8e/J	.	.	.	.	.	8B\J	.	.	.	.	.	.	.	.	.	.	.	.	.	.
=51	=51	=51	=51	=51	=51	=51	=51	=51	=51	=51	=51	=51	=51	=51	=51	=51	=51	=51	=51	=51	=51
!	!	!	!	!	!	!	!	!	!	!LO:SIC:v:s=4en\	!	!	!	!	!	!	!	!	!	!	!
2.ryy	4en/	.	8gg\L	.	4C/	-dit	4c\	-dit	.	4e-\	-dit	4gg\	-lis	.	2.r	.	2.r	.	.	.	.
.	.	.	8een\	.	.	.	.	.	.	.	.	.	.	.	.	.	.	.	.	.	.
.	4r	.	8dd\	.	4r	.	4r	.	.	4r	.	4r	.	.	.	.	.	.	.	.	.
.	.	.	8cc\J	.	.	.	.	.	.	.	.	.	.	.	.	.	.	.	.	.	.
.	4r	.	8bn\L	.	4r	.	4r	.	.	4r	.	4r	.	.	.	.	.	.	.	.	.
.	.	.	8cc\J	.	.	.	.	.	.	.	.	.	.	.	.	.	.	.	.	.	.
!	!	!	!	!	!LO:LB:g=original	!	!	!	!	!	!	!	!	!	!	!	!	!	!	!	!
=52	=52	=52	=52	=52	=52	=52	=52	=52	=52	=52	=52	=52	=52	=52	=52	=52	=52	=52	=52	=52	=52
!	!	!	!	!	!	!	!	!	!	!LO:SIC:v:s=4Bn\	!	!	!	!	!	!	!	!	!	!	!
2.ryy	4G/ 4f	.	8bn\	.	4D\	.	4G/	de	.	4B-\	de	4bn\	de-	.	2.r	.	2.r	.	.	.	.
.	.	.	4b\	.	.	.	.	.	.	.	.	.	.	.	.	.	.	.	.	.	.
.	4G/ 4f	.	.	.	2D\	.	2G/	ce-	.	2f\	Ce-	2b\	-ce-	.	.	.	.	.	.	.	.
.	.	.	4b\	.	.	.	.	.	.	.	.	.	.	.	.	.	.	.	.	.	.
.	4G/ 4f	.	.	.	.	.	.	.	.	.	.	.	.	.	.	.	.	.	.	.	.
.	.	.	8b\	.	.	.	.	.	.	.	.	.	.	.	.	.	.	.	.	.	.
=53	=53	=53	=53	=53	=53	=53	=53	=53	=53	=53	=53	=53	=53	=53	=53	=53	=53	=53	=53	=53	=53
2.ryy	2G;>/ 2en	.	2b-;>\	.	4C/	.	2G/	-lis	.	2en\	-lis	2cc\	-lis	.	2.r	.	2.r	.	2.r	2.r	.
.	.	.	.	.	4r	.	.	.	.	.	.	.	.	.	.	.	.	.	.	.	.
.	4r	.	4r	.	4r	.	4r	.	.	4r	.	4r	.	.	.	.	.	.	.	.	.
!	!LO:LB:g=original	!	!LO:LB:g=original	!	!LO:LB:g=original	!	!LO:LB:g=original	!	!	!LO:LB:g=original	!	!	!	!	!LO:LB:g=original	!	!	!	!LO:LB:g=original	!LO:LB:g=original	!
==	==	==	==	==	==	==	==	==	==	==	==	==	==	==	==	==	==	==	==	==	==
*-	*-	*-	*-	*-	*-	*-	*-	*-	*-	*-	*-	*-	*-	*-	*-	*-	*-	*-	*-	*-	*-
!!!system-decoration: [(s1,s2)][(s3,s4)][(s5,s6)][(s7,s8,s9,s10)][(s11)]
!!!RDF**kern: < = below
!!!RDF**kern: > = above
!!!ENC: Anastazja Marusiak
!!!END: 2021-11-24
!!!ENC: Marta Chmielewska
!!!END: 2021-12-01
